dist/images/logos/heap-logo.svg

<svg height="101" viewBox="0 0 391 101" width="391" xmlns="http://www.w3.org/2000/svg" xmlns:xlink="http://www.w3.org/1999/xlink"><linearGradient id="a" x1="80.892%" x2="20.232%" y1="17.948%" y2="82.323%"><stop offset="0" stop-color="#dd4362"/><stop offset=".56715" stop-color="#ee633f"/><stop offset="1" stop-color="#fb7c24"/></linearGradient><g fill="none" fill-rule="evenodd"><path d="m172.08 79.08v-56h-12.32v22.4h-25.04v-22.4h-12.48v56h12.48v-22.16h25.04v22.16zm69.12-11.6h-30.4v-11.28h27.6v-10.96h-27.6v-10.8h29.28v-11.44h-41.52v56h42.64zm67.6 11.52h13.52l-25.12-56h-13.6l-25.12 56h13.44l4.08-9.6h28.72zm-8.8-20.64h-19.28l9.68-22.72zm54.72-23.52h13.92c5.92 0 8.96 4 8.96 8.48s-2.96 8.4-8.96 8.4h-13.92zm13.92 28.32c14.24-.16 21.44-8.88 21.44-20.08 0-10.8-7.12-20.08-21.44-20.08h-26.4v56h12.48v-15.84z" fill="#111"/><path d="m0 25.5 43-25.5 43 25.5v50l-43 25.5-43-25.5zm8 4.756 35-20.756v41.5l35-20.744v40.494l-35 20.75-35-20.75z" fill="url(#a)"/></g></svg>

<svg width="391" height="101" viewBox="0 0 391 101" xmlns="http://www.w3.org/2000/svg"><title>Heap Logo</title><defs><linearGradient x1="80.892%" y1="17.948%" x2="20.232%" y2="82.323%" id="a"><stop stop-color="#DD4362" offset="0%"/><stop stop-color="#EE633F" offset="56.715%"/><stop stop-color="#FB7C24" offset="100%"/></linearGradient></defs><g fill="none" fill-rule="evenodd"><path d="M172.08 79.08v-56h-12.32v22.4h-25.04v-22.4h-12.48v56h12.48V56.92h25.04v22.16h12.32zm69.12-11.6h-30.4V56.2h27.6V45.24h-27.6v-10.8h29.28V23h-41.52v56h42.64V67.48zM308.8 79h13.52L297.2 23h-13.6l-25.12 56h13.44l4.08-9.6h28.72l4.08 9.6zM300 58.36h-19.28l9.68-22.72 9.6 22.72zm54.72-23.52h13.92c5.92 0 8.96 4 8.96 8.48s-2.96 8.4-8.96 8.4h-13.92V34.84zm13.92 28.32c14.24-.16 21.44-8.88 21.44-20.08 0-10.8-7.12-20.08-21.44-20.08h-26.4v56h12.48V63.16h13.92z" fill="#111"/><path d="M0 25.5L43 0l43 25.5v50L43 101 0 75.5v-50zm8 4.756L43 9.5V51l35-20.744V70.75L43 91.5 8 70.75V30.256z" fill="url(#a)"/></g></svg>
